src/activities/melody/resource/xylofon_part2.svg

<?xml version="1.0" encoding="UTF-8" standalone="no"?>
<svg
   xmlns:dc="http://purl.org/dc/elements/1.1/"
   xmlns:cc="http://creativecommons.org/ns#"
   xmlns:rdf="http://www.w3.org/1999/02/22-rdf-syntax-ns#"
   xmlns:svg="http://www.w3.org/2000/svg"
   xmlns="http://www.w3.org/2000/svg"
   id="svg1018"
   width="300"
   height="120"
   version="1.1">
  <defs
     id="defs1020" />
  <metadata
     id="metadata1021">
    <rdf:RDF>
      <cc:Work
         rdf:about="">
        <dc:format>image/svg+xml</dc:format>
        <dc:type
           rdf:resource="http://purl.org/dc/dcmitype/StillImage" />
        <dc:title></dc:title>
        <dc:date>2021</dc:date>
        <dc:creator>
          <cc:Agent>
            <dc:title>Timothée Giet</dc:title>
          </cc:Agent>
        </dc:creator>
        <cc:license
           rdf:resource="http://creativecommons.org/licenses/by-sa/4.0/" />
      </cc:Work>
      <cc:License
         rdf:about="http://creativecommons.org/licenses/by-sa/4.0/">
        <cc:permits
           rdf:resource="http://creativecommons.org/ns#Reproduction" />
        <cc:permits
           rdf:resource="http://creativecommons.org/ns#Distribution" />
        <cc:requires
           rdf:resource="http://creativecommons.org/ns#Notice" />
        <cc:requires
           rdf:resource="http://creativecommons.org/ns#Attribution" />
        <cc:permits
           rdf:resource="http://creativecommons.org/ns#DerivativeWorks" />
        <cc:requires
           rdf:resource="http://creativecommons.org/ns#ShareAlike" />
      </cc:License>
    </rdf:RDF>
  </metadata>
  <path
     style="font-size:12px;fill:#5ca124;fill-opacity:1;fill-rule:evenodd;stroke-width:1.01835787"
     d="M 266.1018,13.302456 C 258.87029,3.58287 246.31994,1.0618536 238.70304,1 L 19.964635,1.3312259 C 7.760666,1.1866387 -3.3767372,5.8733608 2.720947,17.01326 14.62616,38.762962 22.443331,77.45434 17.62669,100.11019 14.990747,112.50885 25.177466,118.85542 37.381446,119 l 214.554264,-1.02414 c 12.20403,0.14436 17.62401,-2.82029 22.90221,-14.47071 8.40596,-16.424372 3.36659,-69.984434 -8.73612,-90.202694 z"
     id="path741" />
  <path
     style="font-size:12px;fill:#86d23a;fill-opacity:1;fill-rule:evenodd;stroke-width:0.97887731"
     d="M 263.38042,15.134668 C 256.42589,5.7964645 244.35623,3.3743447 237.03109,3.3149162 L 27.436718,3.633146 C 15.700172,3.4942361 4.989357,7.9970715 10.853476,18.699878 22.302716,39.596229 29.820465,76.769502 25.188315,98.536434 22.653327,110.4486 32.449898,116.54617 44.186431,116.68507 L 249.75691,115.7011 c 11.73659,0.1387 16.949,-2.70963 22.02503,-13.90291 8.084,-15.779957 3.23762,-67.238544 -8.40152,-86.663522 z"
     id="path741-3" />
  <ellipse
     transform="matrix(0.21890469,0.97574625,-0.9716831,0.23628787,0,0)"
     style="fill:#686868;fill-opacity:1;fill-rule:evenodd;stroke:none;stroke-width:1.03045025pt;stroke-linecap:butt;stroke-linejoin:miter;stroke-opacity:1"
     id="path767"
     cx="73.176399"
     cy="-56.716942"
     rx="22.594587"
     ry="14.528691" />
  <ellipse
     transform="matrix(0.21890469,0.97574625,-0.9716831,0.23628787,0,0)"
     style="fill:#c9c9c9;fill-opacity:1;fill-rule:evenodd;stroke:none;stroke-width:0.86828023pt;stroke-linecap:butt;stroke-linejoin:miter;stroke-opacity:1"
     id="path767-6"
     cx="73.45459"
     cy="-57.8657"
     rx="19.0387"
     ry="12.242197" />
  <ellipse
     transform="matrix(0.21890469,0.97574625,-0.9716831,0.23628787,0,0)"
     style="fill:#686868;fill-opacity:1;fill-rule:evenodd;stroke:none;stroke-width:1.03045025pt;stroke-linecap:butt;stroke-linejoin:miter;stroke-opacity:1"
     id="path767-7"
     cx="111.93366"
     cy="-216.76492"
     rx="22.594587"
     ry="14.528691" />
  <ellipse
     transform="matrix(0.21890469,0.97574625,-0.9716831,0.23628787,0,0)"
     style="fill:#c9c9c9;fill-opacity:1;fill-rule:evenodd;stroke:none;stroke-width:0.86828023pt;stroke-linecap:butt;stroke-linejoin:miter;stroke-opacity:1"
     id="path767-6-5"
     cx="112.21186"
     cy="-217.91368"
     rx="19.0387"
     ry="12.242197" />
</svg>

<svg xmlns:dc="http://purl.org/dc/elements/1.1/" xmlns:cc="http://creativecommons.org/ns#" xmlns:rdf="http://www.w3.org/1999/02/22-rdf-syntax-ns#" xmlns="http://www.w3.org/2000/svg" width="300" height="120"><metadata><rdf:RDF><cc:Work><dc:format>image/svg+xml</dc:format><dc:type rdf:resource="http://purl.org/dc/dcmitype/StillImage"/><dc:title/><dc:date>2021</dc:date><dc:creator><cc:Agent><dc:title>Timothée Giet</dc:title></cc:Agent></dc:creator><cc:license rdf:resource="http://creativecommons.org/licenses/by-sa/4.0/"/></cc:Work><cc:License rdf:about="http://creativecommons.org/licenses/by-sa/4.0/"><cc:permits rdf:resource="http://creativecommons.org/ns#Reproduction"/><cc:permits rdf:resource="http://creativecommons.org/ns#Distribution"/><cc:requires rdf:resource="http://creativecommons.org/ns#Notice"/><cc:requires rdf:resource="http://creativecommons.org/ns#Attribution"/><cc:permits rdf:resource="http://creativecommons.org/ns#DerivativeWorks"/><cc:requires rdf:resource="http://creativecommons.org/ns#ShareAlike"/></cc:License></rdf:RDF></metadata><path style="font-size:12px;fill:#5ca124;fill-opacity:1;fill-rule:evenodd;stroke-width:1.01835787" d="M266.102 13.302C258.87 3.582 246.32 1.062 238.703 1l-218.738.331C7.76 1.187-3.377 5.873 2.72 17.013c11.905 21.75 19.722 60.441 14.906 83.097-2.636 12.399 7.55 18.745 19.754 18.89l214.555-1.024c12.204.144 17.624-2.82 22.902-14.47 8.406-16.425 3.367-69.985-8.736-90.204z"/><path style="font-size:12px;fill:#86d23a;fill-opacity:1;fill-rule:evenodd;stroke-width:.97887731" d="M263.38 15.135c-6.954-9.339-19.024-11.76-26.349-11.82l-209.594.318C15.7 3.494 4.989 7.997 10.853 18.7c11.45 20.896 18.967 58.07 14.335 79.836-2.535 11.913 7.262 18.01 18.998 18.15l205.57-.985c11.738.139 16.95-2.71 22.026-13.903 8.084-15.78 3.238-67.238-8.402-86.663z"/><ellipse transform="matrix(.2189 .97575 -.97168 .23629 0 0)" style="fill:#686868;fill-opacity:1;fill-rule:evenodd;stroke:none;stroke-width:1.03045025pt;stroke-linecap:butt;stroke-linejoin:miter;stroke-opacity:1" cx="73.176399" cy="-56.716942" rx="22.594587" ry="14.528691"/><ellipse transform="matrix(.2189 .97575 -.97168 .23629 0 0)" style="fill:#c9c9c9;fill-opacity:1;fill-rule:evenodd;stroke:none;stroke-width:.86828023pt;stroke-linecap:butt;stroke-linejoin:miter;stroke-opacity:1" cx="73.45459" cy="-57.8657" rx="19.0387" ry="12.242197"/><ellipse transform="matrix(.2189 .97575 -.97168 .23629 0 0)" style="fill:#686868;fill-opacity:1;fill-rule:evenodd;stroke:none;stroke-width:1.03045025pt;stroke-linecap:butt;stroke-linejoin:miter;stroke-opacity:1" cx="111.93366" cy="-216.76492" rx="22.594587" ry="14.528691"/><ellipse transform="matrix(.2189 .97575 -.97168 .23629 0 0)" style="fill:#c9c9c9;fill-opacity:1;fill-rule:evenodd;stroke:none;stroke-width:.86828023pt;stroke-linecap:butt;stroke-linejoin:miter;stroke-opacity:1" cx="112.21186" cy="-217.91368" rx="19.0387" ry="12.242197"/></svg>
